!!!!SEGMENT: pl-kk--kk-i-317_borimius-jan--rorate-caeli.krn
!!!cenid: 16xx:1072
!!!COM: Borimius, Jan
!!!COM-rismid: pe30096438
!!!CDT: 1598-1624
!!!CNT: Polish
!!!OTL: Rorate caeli
!!!PDT: 1619
!!!AGN: Sacred
!!!SMS-siglum: PL-Kk
!!!SMS-shelfmark: Kk.I.317
!!!SMS-shelfwork: W
!!!SMS-variant:
!!!SMS-altvar:
!!!NIFC-rismid: 1001146219
!!!URL-scan: http://repozytorium.nifc.pl/skany/pl-kk-nut--i-317
!!!ONB-nifc:
**kern	**text	**kern	**fba	**text	**kern	**text	**kern	**text	**kern	**text
*part5	*part5	*part4	*part4	*part4	*part3	*part3	*part2	*part2	*part1	*part1
*staff5	*staff5	*staff4	*	*staff4	*staff3	*staff3	*staff2	*staff2	*staff1	*staff1
*Iempty	*	*Iempty	*	*	*Itenor	*	*Ialto	*	*Ivox	*
*I"Baſso Ripieno.	*	*I"Baſso.	*	*	*I"Tenore	*	*I"Alto.	*	*I"Canto.	*
*I'B rip	*	*I'B	*	*	*I'T	*	*I'A	*	*I'S	*
*clefF4	*	*clefF4	*	*	*clefC4	*	*clefC3	*	*clefC1	*
*k[b-]	*	*k[b-]	*	*	*k[b-]	*	*k[b-]	*	*k[b-]	*
*g:	*	*g:	*	*	*g:	*	*g:	*	*g:	*
*M2/1	*	*M2/1	*	*	*M2/1	*	*M2/1	*	*M2/1	*
*met(C|)	*	*met(C|)	*	*	*met(C|)	*	*met(C|)	*	*met(C|)	*
=1-	=1-	=1-	=1-	=1-	=1-	=1-	=1-	=1-	=1-	=1-
!	!	!LO:TX:t=P:problem:znaki: nad BB- dodany B-	!	!	!	!	!	!	!LO:TX:t=P:problem:oddech/cezura na różnej wysokości:global	!
!LO:TX:t=P:problem:znaki: nad BB- dodany B-	!	!LO:TX:t=P:problem:kreska pseudotaktowa	!	!	!LO:TX:t=P:problem:kreska pseudotaktowa	!	!LO:TX:t=P:problem:kreska pseudotaktowa	!	!LO:TX:t=P:problem:kreska pseudotaktowa	!
1G\	Ro-	1G\	.	Ro-	0d\	Ro-	1g\	Ro-	1b-\	Ro-
!	!	!LO:TX:t=P:problem:kreska pseudotaktowa	!	!	!	!	!LO:TX:t=P:problem:kreska pseudotaktowa	!	!LO:TX:t=P:problem:kreska pseudotaktowa	!
1D\	.	1D\	.	.	.	.	1f#X\	.	1a\	.
=2-	=2-	=2-	=2-	=2-	=2-	=2-	=2-	=2-	=2-	=2-
!	!	!LO:TX:t=P:problem:kreska pseudotaktowa	!	!	!LO:TX:t=P:problem:kreska pseudotaktowa	!	!LO:TX:t=P:problem:kreska pseudotaktowa	!	!LO:TX:t=P:problem:kreska pseudotaktowa	!
1E-X\	-ra-	1E-X\	.	-ra-	1B-X\	.	0g\	-ra-	0ee-X\	-ra-
!	!	!LO:TX:t=P:problem:kreska pseudotaktowa	!	!	!	!	!	!	!	!
1C/	.	1C/	.	.	1.A\	-ra-	.	.	.	.
=3-	=3-	=3-	=3-	=3-	=3-	=3-	=3-	=3-	=3-	=3-
*	*	*	*	*	*	*	*2\right	*	*	*
!LO:TX:t=P:problem:kreska pseudotaktowa	!	!LO:TX:t=P:problem:kreska pseudotaktowa	!	!	!	!	!	!	!LO:TX:t=P:problem:kreska pseudotaktowa	!
0D\	.	0D\	.	.	.	.	2f#X\	.	0dd\	.
*	*	*	*	*	*2\right	*	*	*	*	*
!	!	!	!	!	!LO:TX:t=P:problem:kreska pseudotaktowa	!	!	!	!	!
!	!	!	!	!	!	!	!LO:TX:t=P:problem:kreska pseudotaktowa przez całą nutę	!	!	!
.	.	.	.	.	2B-\	.	1g\	.	.	.
!	!	!	!	!	!LO:TX:t=P:problem:kreska pseudotaktowa	!	!	!	!	!
.	.	.	.	.	1A\	.	.	.	.	.
.	.	.	.	.	.	.	2f#X\	.	.	.
=4-	=4-	=4-	=4-	=4-	=4-	=4-	=4-	=4-	=4-	=4-
*2\right	*	*2\right	*	*	*	*	*	*	*2\right	*
2D\	-te	2D\	.	-te	2A,\	-te	2g\	-te	2dd\	-te
!LO:TX:t=P:problem:kreska pseudotaktowa	!	!LO:TX:t=P:problem:kreska pseudotaktowa	!	!	!LO:TX:t=P:problem:kreska pseudotaktowa	!	!LO:TX:t=P:problem:kreska pseudotaktowa	!	!LO:TX:t=P:problem:kreska pseudotaktowa	!
2r	.	2r	.	.	2d\	Ro-	2r	.	2r	.
!	!	!LO:TX:t=P:problem:kreska pseudotaktowa	!	!	!	!	!LO:TX:t=P:problem:kreska pseudotaktowa	!	!LO:TX:t=P:problem:kreska pseudotaktowa	!
1r	.	1r	.	.	2d\	-ra-	1r	.	1r	.
!	!	!	!	!	!LO:TX:t=P:problem:kreska pseudotaktowa	!	!	!	!	!
.	.	.	.	.	2d\	-te	.	.	.	.
=5-	=5-	=5-	=5-	=5-	=5-	=5-	=5-	=5-	=5-	=5-
!	!	!	!	!	!LO:TX:t=P:problem:kreska pseudotaktowa	!	!	!	!	!
2r	.	2r	.	.	0d\	Cae-	2r	.	2r	.
!LO:TX:t=P:problem:kreska pseudotaktowa	!	!LO:TX:t=P:problem:kreska pseudotaktowa	!	!	!	!	!LO:TX:t=P:problem:kreska pseudotaktowa	!	!LO:TX:t=P:problem:kreska pseudotaktowa	!
2G\	Ro-	2G\	.	Ro-	.	.	2g\	Ro-	2b-\	Ro-
2G\	-ra-	2G\	.	-ra-	.	.	2g\	-ra-	2b-\	-ra-
!	!	!LO:TX:t=P:problem:kreska pseudotaktowa	!	!	!	!	!LO:TX:t=P:problem:kreska pseudotaktowa	!	!LO:TX:t=P:problem:kreska pseudotaktowa	!
2G\	-te	2G\	.	-te	.	.	2g,\	-te	2b-,\	-te
=6-	=6-	=6-	=6-	=6-	=6-	=6-	=6-	=6-	=6-	=6-
2F#X\	cae-	2F#X\	.	cae-	2d\	-li	(2d\	cae-	2a\	cae-
!LO:TX:t=P:problem:kreska pseudotaktowa	!	!LO:TX:t=P:problem:kreska pseudotaktowa	!	!	!LO:TX:t=P:problem:kreska pseudotaktowa	!	!LO:TX:t=P:problem:kreska pseudotaktowa	!	!LO:TX:t=P:problem:kreska pseudotaktowa	!
2D\	-li	2D/	.	-li	2A\	cae-	2f#X\)	.	2dd\	-li
!	!	!	!	!	!LO:TX:t=P:problem:kreska pseudotaktowa	!	!	!	!	!
4G\	Ro-	4G\	.	Ro-	1B-\	.	2g,\	-li	1.dd\	/cae-
4A\	.	4A\	.	.	.	.	.	.	.	.
!	!	!	!	!	!	!	!LO:TX:t=P:problem:kreska pseudotaktowa przez całą nutę	!	!	!
4B-\	.	4B-\	.	.	.	.	1g\	cae-	.	.
!LO:TX:t=P:problem:kreska pseudotaktowa	!	!LO:TX:t=P:problem:kreska pseudotaktowa	!	!	!	!	!	!	!	!
4c\	.	4c\	.	.	.	.	.	.	.	.
=7-	=7-	=7-	=7-	=7-	=7-	=7-	=7-	=7-	=7-	=7-
!	!	!	!	!	!LO:TX:t=P:problem:kreska pseudotaktowa	!	!	!	!	!
2d\	-ra-	2d\	.	-ra-	1A\	-li	.	.	.	.
!	!	!	!	!	!	!	!LO:TX:t=P:problem:kreska pseudotaktowa	!	!	!
!	!	!LO:TX:t=P:problem:kreska pseudotaktowa	!	!	!	!	!LO:SIC:v:t=custos g	!	!LO:TX:t=P:problem:kreska pseudotaktowa	!
2D/	-te	2D/	.	-te	.	.	2f#X\	.	2dd,\	-li/
!	!	!LO:LB:g=original	!	!	!	!	!LO:LB:g=original	!	!	!
!	!	!	!	!	!	!	!	!	!LO:TX:t=P:problem:kreska pseudotaktowa	!
2G\	cae-	2G\	.	cae-	2B-\	de-	2g\	-li	[<1dd\	de-
!	!	!	!	!	!LO:TX:t=P:problem:kreska pseudotaktowa	!	!	!	!	!
!LO:TX:t=P:problem:kreska pseudotaktowa	!	!LO:TX:t=P:problem:kreska pseudotaktowa	!	!	!LO:SIC:v:t=custos A	!	!LO:TX:t=P:problem:kreska pseudotaktowa	!	!	!
2D\	-li	2D/	.	-li	2A/	.	2fn\	de-	.	.
!	!	!	!	!	!LO:LB:g=original	!	!	!	!	!
=8-	=8-	=8-	=8-	=8-	=8-	=8-	=8-	=8-	=8-	=8-
2.A\	de-	2A\	.	de-	2A\	.	2.e\	.	2dd\]	.
!	!	!LO:TX:t=P:problem:kreska pseudotaktowa	!	!	!LO:TX:t=P:problem:kreska pseudotaktowa	!	!	!	!LO:TX:t=P:problem:kreska pseudotaktowa	!
.	.	2AA/	.	-su-	2A\	-su-	.	.	2cc#X\	-su-
!LO:TX:t=P:problem:kreska pseudotaktowa	!	!	!	!	!	!	!LO:TX:t=P:problem:kreska pseudotaktowa	!	!	!
4AA/	-ſu-	.	.	.	.	.	4e\	-su-	.	.
!LO:LB:g=original	!	!	!	!	!	!	!	!	!	!
2D,\	-per,	2D,\	.	-per,	2A\	-per:	2f#X,\	-per	2dd\	-per
!LO:TX:t=P:problem:kreska pseudotaktowa	!	!LO:TX:t=P:problem:kreska pseudotaktowa	!	!	!LO:TX:t=P:problem:kreska pseudotaktowa	!	!LO:TX:t=P:problem:kreska pseudotaktowa	!	!LO:TX:t=P:problem:kreska pseudotaktowa	!
2d\	et	2d\	.	et	2r	.	2f#\	et	2r	.
!	!	!	!	!	!	!	!	!	!LO:LB:g=original	!
=9-	=9-	=9-	=9-	=9-	=9-	=9-	=9-	=9-	=9-	=9-
2B-X\	nu-	2B-X\	.	nu-	2r	.	2g\	nu-	2r	.
!	!	!LO:TX:t=P:problem:kreska pseudotaktowa	!	!	!LO:TX:t=P:problem:kreska pseudotaktowa	!	!LO:TX:t=P:problem:kreska pseudotaktowa	!	!LO:TX:t=P:problem:kreska pseudotaktowa	!
2F#X\	-bes	2F#X,\	.	-bes	2d\	et	2a,\	-bes	2a\	et
!	!	!LO:TX:t=P:problem:kreska pseudotaktowa	!	!	!	!	!LO:TX:t=P:problem:kreska pseudotaktowa	!	!	!
1G\	plu-	1G\	.	plu-	2B-\	nu-	1g\	plu-	2b-\	nu-
!	!	!	!	!	!LO:TX:t=P:problem:kreska pseudotaktowa	!	!	!	!LO:TX:t=P:problem:kreska pseudotaktowa	!
.	.	.	.	.	2B-\	-bes	.	.	2dd,\	-bes
=10-	=10-	=10-	=10-	=10-	=10-	=10-	=10-	=10-	=10-	=10-
!LO:TX:t=P:problem:kreska pseudotaktowa	!	!LO:TX:t=P:problem:kreska pseudotaktowa	!	!	!	!	!LO:TX:t=P:problem:kreska pseudotaktowa	!	!	!
1D\	-ant	1D\	.	-ant	2A/	plu-	1f#X\,	-ant	2dd\	plu-
!	!	!	!	!	!LO:TX:t=P:problem:kreska pseudotaktowa	!	!	!	!LO:TX:t=P:problem:kreska pseudotaktowa	!
.	.	.	.	.	2A/	-ant	.	.	2dd,\	-ant
2E-X\	nu-	2E-X\	.	nu-	2G/	/plu-	2g\	nu-	2b-\	nu-
!LO:TX:t=P:problem:kreska pseudotaktowa	!	!LO:TX:t=P:problem:kreska pseudotaktowa	!	!	!LO:TX:t=P:problem:kreska pseudotaktowa	!	!LO:TX:t=P:problem:kreska pseudotaktowa	!	!LO:TX:t=P:problem:kreska pseudotaktowa	!
2D\	-bes	2D/	.	-bes	2B-\	-ant/	2fn,\	-bes	2dd,\	-bes
=11-	=11-	=11-	=11-	=11-	=11-	=11-	=11-	=11-	=11-	=11-
!	!	!	!	!	!	!	!LO:SIC:v:s=2e-	!	!	!
2C/	plu-	2C/	.	plu-	2A\	Ju-	2en\	plu-	2ee-X\	plu-
!	!	!LO:TX:t=P:problem:kreska pseudotaktowa	!	!	!	!	!LO:TX:t=P:problem:kreska pseudotaktowa	!	!LO:TX:t=P:problem:kreska pseudotaktowa	!
2BB-/	-ant	2BB-/	.	-ant	1B-\	.	2f\	-ant	2dd\	-ant
!LO:TX:t=P:problem:kreska pseudotaktowa	!	!LO:TX:t=P:problem:kreska pseudotaktowa	!	!	!	!	!LO:TX:t=P:problem:kreska pseudotaktowa	!	!LO:TX:t=P:problem:kreska pseudotaktowa	!
1F\	Ju-	1F\	.	Ju-	.	.	1f\	Ju-	1cc\	Ju-
!	!	!	!	!	!LO:TX:t=P:problem:kreska pseudotaktowa	!	!	!	!	!
.	.	.	.	.	2A\	.	.	.	.	.
=12-	=12-	=12-	=12-	=12-	=12-	=12-	=12-	=12-	=12-	=12-
2BB-,/	-ſtum	2BB-,/	.	-stum	2B-,\	-stum	2f,\	-stum	2dd,\	-stum
!LO:TX:t=P:problem:kreska pseudotaktowa	!	!LO:TX:t=P:problem:kreska pseudotaktowa	!	!	!LO:TX:t=P:problem:kreska pseudotaktowa	!	!LO:TX:t=P:problem:kreska pseudotaktowa	!	!LO:TX:t=P:problem:kreska pseudotaktowa	!
2B-\	a-	2B-\	.	a-	2B-\	a-	2f\	a-	2dd\	a-
2A\	-pe-	2A\	.	-pe-	2c\	-pe-	4f\	-pe-	2cc\	-pe-
.	.	.	.	.	.	.	4f\	-ri-	.	.
!	!	!LO:TX:t=P:problem:kreska pseudotaktowa	!	!	!LO:TX:t=P:problem:kreska pseudotaktowa	!	!LO:TX:t=P:problem:kreska pseudotaktowa przez całą nutę	!	!LO:TX:t=P:problem:kreska pseudotaktowa	!
2B-\	-ri-	2B-\	.	-ri-	2B-\	-ri-	1f\	-a-	2dd\	-ri-
=13-	=13-	=13-	=13-	=13-	=13-	=13-	=13-	=13-	=13-	=13-
!LO:TX:t=P:problem:kreska pseudotaktowa	!	!LO:TX:t=P:problem:kreska pseudotaktowa	!	!	!	!	!	!	!LO:TX:t=P:problem:kreska pseudotaktowa	!
1G\	-a-	1G\	.	-a-	(2d\	-a-	.	.	1b-X\T	-a-
!	!	!	!	!	!LO:TX:t=P:problem:kreska pseudotaktowa	!	!	!	!	!
!	!	!	!	!	!LO:SIC:v:t=custos c	!	!LO:TX:t=P:problem:kreska pseudotaktowa	!	!	!
.	.	.	.	.	2B-\)	.	2e\	.	.	.
!	!	!LO:LB:g=original	!	!	!LO:LB:g=original	!	!LO:LB:g=original	!	!	!
2F,\	-t(ur)	2F,\	.	-tur	2c,\	-tur	2f,\	-tur	2a,\	-tur
!LO:TX:t=P:problem:kreska pseudotaktowa	!	!LO:TX:t=P:problem:kreska pseudotaktowa	!	!	!LO:TX:t=P:problem:kreska pseudotaktowa	!	!LO:TX:t=P:problem:kreska pseudotaktowa	!	!LO:TX:t=P:problem:kreska pseudotaktowa	!
2G\	ter-	2G\	.	ter-	2B-\	ter-	[<2d\	ter-	2dd\	ter-
=14-	=14-	=14-	=14-	=14-	=14-	=14-	=14-	=14-	=14-	=14-
2F\	.	2F\	.	.	2A/	.	2d\]	.	1.dd\	.
!	!	!LO:TX:t=P:problem:kreska pseudotaktowa	!	!	!	!	!LO:TX:t=P:problem:kreska pseudotaktowa	!	!	!
2G\	.	2G\	.	.	1B-\	.	[<2g\	.	.	.
!	!	!LO:TX:t=P:problem:kreska pseudotaktowa	!	!	!	!	!LO:TX:t=P:problem:kreska pseudotaktowa	!	!	!
1E-X\	.	1E-X\	7 6	.	.	.	1g\]	.	.	.
!	!	!	!	!	!	!	!	!	!LO:TX:t=P:problem:kreska pseudotaktowa	!
!	!	!	!	!	!LO:TX:t=P:problem:kreska pseudotaktowa	!	!	!	!LO:SIC:v:t=custos dd	!
.	.	.	.	.	2A/	.	.	.	2ccn\	.
!	!	!	!	!	!	!	!	!	!LO:LB:g=original	!
=15-	=15-	=15-	=15-	=15-	=15-	=15-	=15-	=15-	=15-	=15-
!	!	!	!	!	!LO:SIC:v:s=2A	!	!	!	!	!
2D\	-ra	2D/	.	-ra	2B-\	-ra,	2f#X\	-ra	2dd,\	-ra,
!LO:TX:t=P:problem:kreska pseudotaktowa	!	!LO:TX:t=P:problem:kreska pseudotaktowa	!	!	!LO:TX:t=P:problem:kreska pseudotaktowa	!	!LO:TX:t=P:problem:kreska pseudotaktowa	!	!LO:TX:t=P:problem:kreska pseudotaktowa	!
2r	.	2r	.	.	2r	.	2r	.	2g/	et
!LO:LB:g=original	!	!	!	!	!LO:TX:t=P:problem:kreska pseudotaktowa	!	!	!	!	!
0r	.	0r	.	.	0r	.	2r	.	2a\	ger-
!	!	!	!	!	!	!	!LO:TX:t=P:problem:kreska pseudotaktowa	!	!LO:TX:t=P:problem:kreska pseudotaktowa	!
.	.	.	.	.	.	.	2d\	et	[2dd\	.
=16-	=16-	=16-	=16-	=16-	=16-	=16-	=16-	=16-	=16-	=16-
!LO:TX:t=P:problem:kreska pseudotaktowa	!	!LO:TX:t=P:problem:kreska pseudotaktowa	!	!	!	!	!	!	!	!
.	.	.	.	.	.	.	2e\	ger-	2dd\]	.
!	!	!	!	!	!	!	!LO:TX:t=P:problem:kreska pseudotaktowa	!	!LO:TX:t=P:problem:kreska pseudotaktowa	!
.	.	.	.	.	.	.	2a\	.	2cc#X\	-mi-
1r	.	1r	.	.	2r	.	2f#X\	.	2dd,\	-net
!	!	!	!	!	!LO:TX:t=P:problem:kreska pseudotaktowa	!	!LO:TX:t=P:problem:kreska pseudotaktowa na całej nucie	!	!LO:TX:t=P:problem:kreska pseudotaktowa	!
.	.	.	.	.	2G/	et	1g\	.	2b-\	et
=17-	=17-	=17-	=17-	=17-	=17-	=17-	=17-	=17-	=17-	=17-
2r	.	2r	.	.	2A\	ger-	.	.	2.a\	ger-
!LO:TX:t=P:problem:kreska pseudotaktowa	!	!LO:TX:t=P:problem:kreska pseudotaktowa	!	!	!	!	!LO:TX:t=P:problem:kreska pseudotaktowa	!	!	!
2D\	et	2D/	.	et	1d\	.	2f#X\	-mi-	.	.
!	!	!	!	!	!	!	!	!	!LO:TX:t=P:problem:kreska pseudotaktowa	!
.	.	.	.	.	.	.	.	.	4a\	-mi-
2E\	ger-	2E\	.	ger-	.	.	2g,\	-net	2g,/	-net
!	!	!LO:TX:t=P:problem:kreska pseudotaktowa	!	!	!LO:TX:t=P:problem:kreska pseudotaktowa	!	!LO:TX:t=P:problem:kreska pseudotaktowa	!	!	!
2A\	.	2A\	.	.	2c#X\	-mi-	2en\	et	1a\	et
=18-	=18-	=18-	=18-	=18-	=18-	=18-	=18-	=18-	=18-	=18-
!	!	!	!	!	!	!	!LO:TX:t=P:problem:kreska pseudotaktowa	!	!	!
2F#X\	.	2F#X\	.	.	2d,\	-net	1d\	ger-	.	.
!	!	!	!	!	!LO:TX:t=P:problem:kreska pseudotaktowa	!	!	!	!LO:TX:t=P:problem:kreska pseudotaktowa	!
1G\	.	1G\	.	.	2G/	et	.	.	2b-\	ger-
.	.	.	.	.	2A\	ger-	2e-X\	.	2cc\	.
!LO:TX:t=P:problem:kreska pseudotaktowa	!	!LO:TX:t=P:problem:kreska pseudotaktowa	!	!	!LO:TX:t=P:problem:kreska pseudotaktowa	!	!LO:TX:t=P:problem:kreska pseudotaktowa	!	!	!
2Fn\	.	2Fn\	.	.	2A\	-mi-	2f\	.	1dd\	.
=19-	=19-	=19-	=19-	=19-	=19-	=19-	=19-	=19-	=19-	=19-
2.E-X\	.	2.E-X\	.	.	(2B-\	-net	2.g\	.	.	.
!	!	!	!	!	!LO:TX:t=P:problem:kreska pseudotaktowa	!	!	!	!LO:TX:t=P:problem:kreska pseudotaktowa	!
.	.	.	.	.	2G/)	.	.	.	2cc#X\	-mi-
!LO:TX:t=P:problem:kreska pseudotaktowa	!	!LO:TX:t=P:problem:kreska pseudotaktowa	!	!	!	!	!LO:TX:t=P:problem:kreska pseudotaktowa	!	!	!
4E-\	-mi-	4E-\	.	-mi-	.	.	4g\	-mi-	.	.
2D,\	-net	2D,/	.	-net	2A,\	.	2f#X,\	-net	2dd,\	-net
!	!	!LO:TX:t=P:problem:kreska pseudotaktowa	!	!	!LO:TX:t=P:problem:kreska pseudotaktowa	!	!LO:TX:t=P:problem:kreska pseudotaktowa	!	!LO:TX:t=P:problem:kreska pseudotaktowa	!
2D\	et	2D\	.	et	2A/	et	2f#\	et	2dd\	et
!	!	!	!	!	!	!	!LO:LB:g=original	!	!	!
=20-	=20-	=20-	=20-	=20-	=20-	=20-	=20-	=20-	=20-	=20-
2En\	ger-	(2En\	.	ger-	2G/	ger-	2g\	ger-	1ccn\	ger-
!LO:TX:t=P:problem:# above	!	!	!	!	!LO:TX:t=P:problem:kreska pseudotaktowa	!	!	!	!	!
!LO:TX:t=P:problem:kreska pseudotaktowa	!	!LO:TX:t=P:problem:kreska pseudotaktowa	!	!	!LO:SIC:v:t=custos d	!	!LO:TX:t=P:problem:kreska pseudotaktowa	!	!	!
2F#X\	.	2F#X\)	.	.	2F#X/	.	2a\	.	.	.
!	!	!LO:LB:g=original	!	!	!LO:LB:g=original	!	!	!	!	!
!	!	!	!	!	!	!	!LO:TX:t=P:problem:kreska pseudotaktowa	!	!LO:TX:t=P:problem:kreska pseudotaktowa	!
2G\	.	2G\	.	.	2d\	.	1g\	.	1b-X\	.
!	!	!LO:TX:t=P:problem:kreska pseudotaktowa	!	!	!	!	!	!	!	!
2C/	.	2C/	.	.	1c\	.	.	.	.	.
=21-	=21-	=21-	=21-	=21-	=21-	=21-	=21-	=21-	=21-	=21-
2D\	.	2D/	.	.	.	.	2f#X\	.	2a\	.
!	!	!	!	!	!	!	!	!	!LO:TX:t=P:problem:kreska pseudotaktowa	!
!LO:TX:t=P:problem:kreska pseudotaktowa	!	!LO:TX:t=P:problem:kreska pseudotaktowa	!	!	!	!	!LO:TX:t=P:problem:kreska pseudotaktowa przez całą nutę	!	!LO:SIC:v:t=custos a	!
2GG/	.	2GG/	.	.	4B-\	.	1g\	.	2b-\	.
!	!	!	!	!	!LO:TX:t=P:problem:kreska pseudotaktowa	!	!	!	!	!
.	.	.	.	.	4c\	.	.	.	.	.
!	!	!	!	!	!	!	!	!	!LO:LB:g=original	!
2.D\	.	2.D\	.	.	2.d\	.	.	.	2.a\	.
!	!	!	!	!	!	!	!LO:TX:t=P:problem:kreska pseudotaktowa	!	!	!
.	.	.	.	.	.	.	2f#\	-mi-	.	.
!	!	!LO:TX:t=P:problem:kreska pseudotaktowa	!	!	!LO:TX:t=P:problem:kreska pseudotaktowa	!	!	!	!LO:TX:t=P:problem:kreska pseudotaktowa	!
4D\	-mi-	4D\	.	-mi-	4d\	-mi-	.	.	4a\	-mi-
=22-	=22-	=22-	=22-	=22-	=22-	=22-	=22-	=22-	=22-	=22-
2GG/	-net	2GG/	.	-net	2d,\	-net	2g\	-net	2b-\	-net
!LO:TX:t=P:problem:kreska pseudotaktowa	!	!LO:TX:t=P:problem:kreska pseudotaktowa	!	!	!	!	!LO:TX:t=P:problem:kreska pseudotaktowa	!	!LO:TX:t=P:problem:kreska pseudotaktowa	!
2r	.	2r	.	.	1d\	Sal-	2r	.	2r	.
!LO:LB:g=original	!	!	!	!	!	!	!	!	!	!
2r	.	2r	.	.	.	.	2r	.	2r	.
!	!	!	!	!	!LO:TX:t=P:problem:kreska pseudotaktowa	!	!LO:TX:t=P:problem:kreska pseudotaktowa przez całą nutę	!	!	!
1G\	Sal-	1G\	.	Sal-	2d\	-va-	1g\	Sal-	1b-\	Sal-
=23-	=23-	=23-	=23-	=23-	=23-	=23-	=23-	=23-	=23-	=23-
.	.	.	.	.	2d\	-to-	.	.	.	.
!LO:TX:t=P:problem:kreska pseudotaktowa	!	!LO:TX:t=P:problem:kreska pseudotaktowa	!	!	!LO:TX:t=P:problem:kreska pseudotaktowa	!	!LO:TX:t=P:problem:kreska pseudotaktowa	!	!LO:TX:t=P:problem:kreska pseudotaktowa	!
2G\	-va-	2G\	.	-va-	2e-X\	.	2g\	-va-	2b-\	-va-
2G\	-to-	2G\	.	-to-	2d\	.	2g\	-to-	(2b-\	-to-
!	!	!LO:TX:t=P:problem:kreska pseudotaktowa	!	!	!LO:TX:t=P:problem:kreska pseudotaktowa	!	!LO:TX:t=P:problem:kreska pseudotaktowa	!	!LO:TX:t=P:problem:kreska pseudotaktowa	!
2A\	.	2A\	.	.	2c\	.	2f#X\	.	2cc\)	.
=24-	=24-	=24-	=24-	=24-	=24-	=24-	=24-	=24-	=24-	=24-
2G\	.	2G\	.	.	2B-\	.	2g,\	-rem	2dd\	.
!	!	!LO:TX:t=P:problem:kreska pseudotaktowa	!	!	!LO:TX:t=P:problem:kreska pseudotaktowa	!	!LO:TX:t=P:problem:kreska pseudotaktowa	!	!LO:TX:t=P:problem:kreska pseudotaktowa	!
2C/	.	2C/	.	.	2c\	.	2g\	/Sal-	2ee-X\	.
!	!	!	!	!	!	!	!	!	!LO:TX:t=P:problem:kreska pseudotaktowa	!
1D\	.	1D\	.	.	1A\	.	2f#X\	-va-	1dd\	.
!	!	!	!	!	!	!	!LO:TX:t=P:problem:kreska pseudotaktowa	!	!	!
.	.	.	.	.	.	.	2f#\	-to-	.	.
=25-	=25-	=25-	=25-	=25-	=25-	=25-	=25-	=25-	=25-	=25-
!LO:TX:t=P:problem:kreska pseudotaktowa	!	!LO:TX:t=P:problem:kreska pseudotaktowa	!	!	!LO:TX:t=P:problem:kreska pseudotaktowa	!	!LO:TX:t=P:problem:kreska pseudotaktowa	!	!LO:TX:t=P:problem:kreska pseudotaktowa	!
1BB-/	-rem	1BB-X/	.	-rem	1B-X\,	-rem	1g\,	-rem/	1dd\,	-rem
!	!	!LO:TX:t=P:problem:kreska pseudotaktowa	!	!	!LO:TX:t=P:problem:kreska pseudotaktowa	!	!LO:TX:t=P:problem:kreska pseudotaktowa	!	!LO:TX:t=P:problem:kreska pseudotaktowa	!
1E-X\	Sal-	1E-X\	.	Sal-	1G/	Sal-	1g\	Sal-	1b-\	Sal-
=26-	=26-	=26-	=26-	=26-	=26-	=26-	=26-	=26-	=26-	=26-
!	!	!	!	!	!	!	!LO:TX:t=P:problem:kreska pseudotaktowa	!	!	!
!	!	!LO:TX:t=P:problem:kreska pseudotaktowa	!	!	!LO:TX:t=P:problem:kreska pseudotaktowa	!	!LO:SIC:v:t=custos f#	!	!LO:TX:t=P:problem:kreska pseudotaktowa	!
1C/	-va-	1C/	.	-va-	1A\	-va-	1g\	-va-	1cc\	-va-
!	!	!	!	!	!	!	!LO:LB:g=original	!	!	!
2D\	-to-	2D/	.	-to-	0.d\	-to-	2f#X\	-to-	2a\	-to-
!	!	!LO:TX:t=P:problem:kreska pseudotaktowa	!	!	!	!	!LO:TX:t=P:problem:kreska pseudotaktowa	!	!LO:TX:t=P:problem:kreska pseudotaktowa	!
2GG/	.	2GG/	.	.	.	.	2g\	.	2b-\	.
=27-	=27-	=27-	=27-	=27-	=27-	=27-	=27-	=27-	=27-	=27-
!LO:TX:t=P:problem:kreska pseudotaktowa	!	!LO:TX:t=P:problem:kreska pseudotaktowa	!	!	!LO:TX:t=P:problem:kreska pseudotaktowa	!	!	!	!	!
[<1D\	.	[<1D\	.	.	.	.	2a\	.	2cc\	.
!	!	!	!	!	!	!	!LO:TX:t=P:problem:kreska pseudotaktowa	!	!LO:TX:t=P:problem:kreska pseudotaktowa	!
.	.	.	.	.	.	.	[<2g\	.	2b-\	.
!	!	!	!	!	!	!	!	!	!LO:TX:t=P:problem:kreska pseudotaktowa	!
1D\]	.	1D\]	.	.	.	.	2g\]	.	1a\	.
!	!	!	!	!	!	!	!LO:TX:t=P:problem:kreska pseudotaktowa	!	!	!
.	.	.	.	.	.	.	2f#X\	.	.	.
=28-	=28-	=28-	=28-	=28-	=28-	=28-	=28-	=28-	=28-	=28-
0GG/;	-rem	0GG/;	.	-rem	0d\;	-rem	0g\;<	-rem.	0bn\;	-rem
!	!	!LO:LB:g=original	!	!	!LO:LB:g=original	!	!	!	!LO:LB:g=original	!
=29||-	=29||-	=29||-	=29||-	=29||-	=29||-	=29||-	=29||-	=29||-	=29||-	=29||-
*M2/1	*	*M2/1	*	*	*M2/1	*	*M2/1	*	*M2/1	*
*met(C|)	*	*met(C|)	*	*	*met(C|)	*	*met(C|)	*	*met(C|)	*
!LO:TX:t=P:problem:kreska po metrum	!	!	!	!	!LO:TX:t=P:problem:kreska pseudotaktowa	!	!LO:TX:t=P:problem:kreska pseudotaktowa	!	!	!
2B-\	Be-	2B-\	.	Be-	1r	.	0r	.	0r	.
4B-\	-ne-	4B-\	.	-ne-	.	.	.	.	.	.
!LO:TX:t=P:problem:kreska pseudotaktowa	!	!LO:TX:t=P:problem:kreska pseudotaktowa	!	!	!	!	!	!	!	!
4B-\	-di-	4B-\	.	-di-	.	.	.	.	.	.
(4A\	-xi-	(4A\	.	-xi-	2f\	Be-	.	.	.	.
4F\)	.	4F\)	.	.	.	.	.	.	.	.
(4G\	-sti	(4G\	.	-sti	4f\	-ne-	.	.	.	.
!LO:TX:t=P:problem:kreska pseudotaktowa	!	!LO:TX:t=P:problem:kreska pseudotaktowa	!	!	!LO:TX:t=P:problem:kreska pseudotaktowa	!	!	!	!	!
4A\)	.	4A\)	.	.	4f\	-di-	.	.	.	.
=30-	=30-	=30-	=30-	=30-	=30-	=30-	=30-	=30-	=30-	=30-
!	!	!	!	!	!	!	!	!	!LO:TX:t=P:problem:kreska pseudotaktowa	!
2.B-\	Do-	2.B-\	.	Do-	(4d\	-xi-	2b-\	Be-	1r	.
.	.	.	.	.	4B-\)	.	.	.	.	.
.	.	.	.	.	(4c\	-sti	4b-\	-ne-	.	.
!LO:TX:t=P:problem:kreska pseudotaktowa	!	!LO:TX:t=P:problem:kreska pseudotaktowa	!	!	!LO:TX:t=P:problem:kreska pseudotaktowa	!	!LO:TX:t=P:problem:kreska pseudotaktowa	!	!	!
4B-\	-mi-	4B-\	.	-mi-	4d\)	.	4b-\	-di-	.	.
!LO:LB:g=original	!	!	!	!	!	!	!	!	!	!
2F,\	-ne	2F,\	.	-ne	2.c\	Do-	(4a\	-xi-	2ff\	Be-
.	.	.	.	.	.	.	4f\)	.	.	.
!	!	!LO:TX:t=P:problem:kreska pseudotaktowa	!	!	!	!	!	!	!	!
2F\	ter-	2F\	.	Be-	.	.	(4g\	-sti	4ff\	-ne-
!	!	!	!	!	!LO:TX:t=P:problem:kreska pseudotaktowa	!	!LO:TX:t=P:problem:kreska pseudotaktowa	!	!LO:TX:t=P:problem:kreska pseudotaktowa	!
.	.	.	.	.	4c\	-mi-	4a\)	.	4ff\	-di-
=31-	=31-	=31-	=31-	=31-	=31-	=31-	=31-	=31-	=31-	=31-
2BB-,/	-ra(m)	2BB-/	.	-ne-	2d,\	-ne	2b-\	Do-	(4dd\	-xi-
.	.	.	.	.	.	.	.	.	4b-\)	.
!LO:TX:t=P:problem:kreska pseudotaktowa	!	!LO:TX:t=P:problem:kreska pseudotaktowa	!	!	!LO:TX:t=P:problem:kreska pseudotaktowa	!	!	!	!	!
2B-\	ter-	2B-\	.	-di-	(2d\	ter-	4b-\	-mi-	(4cc\	-sti
!	!	!	!	!	!	!	!LO:TX:t=P:problem:kreska pseudotaktowa	!	!LO:TX:t=P:problem:kreska pseudotaktowa	!
.	.	.	.	.	.	.	4b-\	-ne	4dd\)	.
2C/	.	2C/	.	-xi-	2c\)	.	2g\	ter-	2ee-X\	Do-
!LO:TX:t=P:problem:kreska pseudotaktowa	!	!LO:TX:t=P:problem:kreska pseudotaktowa	!	!	!LO:TX:t=P:problem:kreska pseudotaktowa	!	!LO:TX:t=P:problem:kreska pseudotaktowa	!	!	!
2BB-/	.	2BB-/	.	-sti	2c,\	-ram	2g\	-ram	4ee-\	-mi-
!	!	!	!	!	!	!	!	!	!LO:TX:t=P:problem:kreska pseudotaktowa	!
.	.	.	.	.	.	.	.	.	4ee-\	-ne
=32-	=32-	=32-	=32-	=32-	=32-	=32-	=32-	=32-	=32-	=32-
2AA/	.	2AA/	.	ter-	2c\	tu-	2f\	/ter-	2ee-X\	ter-
!	!	!	!	!	!	!	!LO:TX:t=P:problem:kreska pseudotaktowa	!	!	!
!	!	!LO:TX:t=P:problem:kreska pseudotaktowa	!	!	!	!	!LO:SIC:v:t=custos f	!	!LO:TX:t=P:problem:kreska pseudotaktowa	!
2BB-/	-ram	2BB-/	.	-ram	1B-\	.	2f\	-ram/	2dd\	-ram
!	!	!	!	!	!	!	!LO:LB:g=original	!	!	!
!	!	!	!	!	!	!	!LO:TX:t=P:problem:kreska pseudotaktowa	!	!LO:TX:t=P:problem:kreska pseudotaktowa	!
2F\	tu-	2F\	.	tu-	.	.	1f\	tu-	1cc\	tu-
!	!	!LO:TX:t=P:problem:kreska pseudotaktowa	!	!	!LO:TX:t=P:problem:kreska pseudotaktowa	!	!	!	!	!
2FF/	.	2FF/	.	.	2A/	.	.	.	.	.
=33-	=33-	=33-	=33-	=33-	=33-	=33-	=33-	=33-	=33-	=33-
2BB-/	-am	2BB-/	.	-am	4B-,\	-am	4f\	-am	4dd\	-am;
.	.	.	.	.	2B-\	A-	4r	.	4r	.
!LO:TX:t=P:problem:kreska pseudotaktowa	!	!LO:TX:t=P:problem:kreska pseudotaktowa	!	!	!	!	!LO:TX:t=P:problem:kreska pseudotaktowa	!	!LO:TX:t=P:problem:kreska pseudotaktowa	!
2r	.	2r	.	.	.	.	2r	.	2r	.
!	!	!	!	!	!LO:TX:t=P:problem:kreska pseudotaktowa	!	!	!	!	!
.	.	.	.	.	4B-\	-ver-	.	.	.	.
!	!	!	!	!	!	!	!	!	!LO:TX:t=P:problem:kreska pseudotaktowa	!
0r	.	0r	.	.	4A/	-ti-	4r	.	1r	.
.	.	.	.	.	4F/	-sti	2f\	A-	.	.
.	.	.	.	.	4G/	Ca-	.	.	.	.
!	!	!	!	!	!LO:TX:t=P:problem:kreska pseudotaktowa	!	!LO:TX:t=P:problem:kreska pseudotaktowa	!	!	!
.	.	.	.	.	4A/	-pti-	4f\	-ver-	.	.
=34-	=34-	=34-	=34-	=34-	=34-	=34-	=34-	=34-	=34-	=34-
.	.	.	.	.	2B-\	-vi-	(4d/	-ti-	4r	.
.	.	.	.	.	.	.	4B-/)	.	2b-\	A-
!	!	!	!	!	!LO:TX:t=P:problem:kreska pseudotaktowa	!	!	!	!	!
.	.	.	.	.	2F/	.	4d,/	-sti	.	.
!	!	!	!	!	!	!	!LO:TX:t=P:problem:kreska pseudotaktowa	!	!LO:TX:t=P:problem:kreska pseudotaktowa	!
.	.	.	.	.	.	.	4e/	Ca-	4b-\	-ver-
!	!	!LO:LB:g=original	!	!	!LO:LB:g=original	!	!	!	!	!
4r	.	4r	.	.	2F/	-ta-	2f\	-pti-	(4a/	-ti-
2F\	a-	2F\	.	a-	.	.	.	.	4f/)	.
!	!	!	!	!	!LO:TX:t=P:problem:kreska pseudotaktowa	!	!LO:TX:t=P:problem:kreska pseudotaktowa	!	!	!
.	.	.	.	.	2c\	.	2f\	-vi-	4g,/	-sti
!LO:TX:t=P:problem:kreska pseudotaktowa	!	!LO:TX:t=P:problem:kreska pseudotaktowa	!	!	!	!	!	!	!LO:TX:t=P:problem:kreska pseudotaktowa	!
4F\	-ver-	4F\	.	-ver-	.	.	.	.	4a/	Ca-
=35-	=35-	=35-	=35-	=35-	=35-	=35-	=35-	=35-	=35-	=35-
4D/	-ti-	4D/	.	-ti-	2F,/	-tem	2f\	-ta-	2b-\	-pti-
4BB-/	.	4BB-/	.	.	.	.	.	.	.	.
!	!	!	!	!	!	!	!	!	!LO:TX:t=P:problem:kreska pseudotaktowa	!
4C,/	-sti	4C,/	.	-sti	4c\	Ca-	4e-X,\	-tem	2b-\	-vi-
!LO:TX:t=P:problem:kreska pseudotaktowa	!	!LO:TX:t=P:problem:kreska pseudotaktowa	!	!	!	!	!LO:TX:t=P:problem:kreska pseudotaktowa	!	!	!
4D/	Ca-	4D/	.	Ca-	(8B-\L	.	4e-\	/Ca-	.	.
!	!	!	!	!	!LO:TX:t=P:problem:kreska pseudotaktowa	!	!	!	!	!
.	.	.	.	.	8A\J)	.	.	.	.	.
2E-X\	-pti-	2E-X\	.	-pti-	2G/	-pti-	2e-\	-pti-	1.b-\	-ta-
!	!	!LO:TX:t=P:problem:kreska pseudotaktowa	!	!	!LO:TX:t=P:problem:kreska pseudotaktowa	!	!LO:TX:t=P:problem:kreska pseudotaktowa	!	!	!
2D\	-vi-	2D\	.	-vi-	2Fn/	-vi-	2f\	-vi-	.	.
=36-	=36-	=36-	=36-	=36-	=36-	=36-	=36-	=36-	=36-	=36-
!LO:TX:t=P:problem:kreska pseudotaktowa	!	!	!	!	!	!	!	!	!	!
!LO:SIC:v:t=custos BB	!	!LO:TX:t=P:problem:kreska pseudotaktowa	!	!	!	!	!	!	!	!
1C/	-ta-	1C/	.	-ta-	2G/	-ta-	2e-X\	-ta-	.	.
!	!	!	!	!	!LO:TX:t=P:problem:kreska pseudotaktowa	!	!LO:TX:t=P:problem:kreska pseudotaktowa	!	!LO:TX:t=P:problem:kreska pseudotaktowa	!
.	.	.	.	.	2E-X/	.	2c/	.	2a\	.
!LO:LB:g=original	!	!	!	!	!	!	!	!	!LO:LB:g=original	!
2BB-,/	-tem	2BB-,/	.	-tem	2F,/	-tem	2d,\	-tem/	2b-,\	-tem
!	!	!	!	!	!	!	!LO:TX:t=P:problem:kreska pseudotaktowa	!	!	!
4B-\	Ca-	(4B-\	.	Ca-	(4B-\	Ca-	2f\	Ca-	(4dd\	Ca-
!	!	!LO:TX:t=P:problem:kreska pseudotaktowa	!	!	!LO:TX:t=P:problem:kreska pseudotaktowa	!	!	!	!LO:TX:t=P:problem:kreska pseudotaktowa	!
4A\	.	4An\)	.	.	4c\)	.	.	.	4cc\)	.
=37-	=37-	=37-	=37-	=37-	=37-	=37-	=37-	=37-	=37-	=37-
2G\	-pti-	2G\	.	-pti-	2G/	-pti-	2en\	-pti-	2b-\	-pti-
!	!	!	!	!	!	!	!LO:TX:t=P:problem:kreska pseudotaktowa	!	!	!
!LO:TX:t=P:problem:kreska pseudotaktowa	!	!LO:TX:t=P:problem:kreska pseudotaktowa	!	!	!LO:TX:t=P:problem:kreska pseudotaktowa	!	!LO:SIC:v:t=custos g	!	!LO:TX:t=P:problem:kreska pseudotaktowa	!
2F\	-vi-	2F\	.	-vi-	2A/	-vi-	2f\	-vi-	2cc\	-vi-
!	!	!	!	!	!	!	!LO:LB:g=original	!	!	!
2En\	-ta-	2En\	.	-ta-	2B-\	-ta-	2g\	-[ta]-	2cc\	-ta-
!LO:TX:t=P:problem:kreska pseudotaktowa	!	!LO:TX:t=P:problem:kreska pseudotaktowa	!	!	!LO:TX:t=P:problem:kreska pseudotaktowa	!	!LO:TX:t=P:problem:kreska pseudotaktowa	!	!LO:TX:t=P:problem:kreska pseudotaktowa	!
2F\	-tem	2F,\	.	-tem	2A,\	-tem	[<2f\	-tem	2cc,\	-tem
=38-	=38-	=38-	=38-	=38-	=38-	=38-	=38-	=38-	=38-	=38-
!	!	!	!	!	!LO:TX:t=P:problem:kreska pseudotaktowa	!	!	!	!LO:TX:t=P:problem:kreska pseudotaktowa	!
2c\	Ja-	2c\	.	Ja-	1G/	Ja-	2f\]	.	1cc\	Ja-
!LO:TX:t=P:problem:kreska pseudotaktowa	!	!LO:TX:t=P:problem:kreska pseudotaktowa	!	!	!	!	!LO:TX:t=P:problem:kreska pseudotaktowa	!	!	!
2C/	-cob	2C/	.	-cob,	.	.	2en\	Ja-	.	.
2F,\	.	2F,\	.	.	2A,\	-cob	2f,\	-cob	2cc,\	-cob
!	!	!LO:TX:t=P:problem:kreska pseudotaktowa	!	!	!LO:TX:t=P:problem:kreska pseudotaktowa	!	!LO:TX:t=P:problem:kreska pseudotaktowa	!	!LO:TX:t=P:problem:kreska pseudotaktowa	!
1F\	Ca-	[<2F\	.	Ca-	2A\	Ca-	2f\	Ca-	2cc\	Ca-
=39-	=39-	=39-	=39-	=39-	=39-	=39-	=39-	=39-	=39-	=39-
.	.	2F\]	.	.	2B-\	-pti-	2g\	-pti-	2dd\	-pti-
!	!	!	!	!	!LO:TX:t=P:problem:kreska pseudotaktowa	!	!LO:TX:t=P:problem:kreska pseudotaktowa	!	!LO:TX:t=P:problem:kreska pseudotaktowa	!
1E-X\	-pti-	1E-X\	.	-pti-	2c\	-vi-	2g\	-vi-	2ee-X\	-vi-
!	!	!	!	!	!LO:LB:g=original	!	!	!	!	!
!	!	!	!	!	!	!	!LO:TX:t=P:problem:kreska pseudotaktowa	!	!	!
.	.	.	.	.	2A/	-ta-	1f\	-ta-	(2cc\	-ta-
!LO:TX:t=P:problem:kreska pseudotaktowa	!	!LO:TX:t=P:problem:kreska pseudotaktowa	!	!	!LO:TX:t=P:problem:kreska pseudotaktowa	!	!	!	!LO:TX:t=P:problem:kreska pseudotaktowa	!
2D\	-vi-	2D\	.	-vi-	2B-,\	-tem	.	.	2dd\)	.
!	!	!LO:LB:g=original	!	!	!	!	!	!	!	!
=40-	=40-	=40-	=40-	=40-	=40-	=40-	=40-	=40-	=40-	=40-
2C/	-ta-	2C/	.	-ta-	2c\	Ja-	2e-X\	.	2a\	.
!LO:TX:t=P:problem:kreska pseudotaktowa	!	!LO:TX:t=P:problem:kreska pseudotaktowa	!	!	!LO:TX:t=P:problem:kreska pseudotaktowa	!	!LO:TX:t=P:problem:kreska pseudotaktowa	!	!LO:TX:t=P:problem:kreska pseudotaktowa	!
2BB-/	.	2BB-/	.	.	2d\	.	2f\	-tem	2b-,\	-tem
2AA/	.	2AA/	.	.	2e-X\	.	0.f\	Ja-	2cc\	Ja-
!LO:TX:t=P:problem:kreska pseudotaktowa	!	!LO:TX:t=P:problem:kreska pseudotaktowa	!	!	!LO:TX:t=P:problem:kreska pseudotaktowa	!	!	!	!LO:TX:t=P:problem:kreska pseudotaktowa	!
2BB-/	-tem	2BB-,/	.	-tem	2d\	.	.	.	2b-\	.
=41-	=41-	=41-	=41-	=41-	=41-	=41-	=41-	=41-	=41-	=41-
!	!	!LO:TX:t=P:problem:kreska pseudotaktowa	!	!	!	!	!LO:TX:t=P:problem:kreska pseudotaktowa	!	!	!
0F\	-Ja-	0F\	.	Ja-	2c\	.	.	.	2a\	.
!	!	!	!	!	!LO:TX:t=P:problem:kreska pseudotaktowa	!	!	!	!	!
.	.	.	.	.	2d\	.	.	.	1b-\	.
!	!	!	!	!	!LO:TX:t=P:problem:kreska pseudotaktowa	!	!	!	!	!
.	.	.	.	.	1c\	.	.	.	.	.
!	!	!	!	!	!	!	!	!	!LO:TX:t=P:problem:kreska pseudotaktowa	!
.	.	.	.	.	.	.	.	.	2a\	.
=42-	=42-	=42-	=42-	=42-	=42-	=42-	=42-	=42-	=42-	=42-
!	!	!	!	!	!	!	!	!	!LO:TX:t=P:problem:wykreślony fragment	!
!	!	!LO:TX:b:t=Vertat Gloria	!	!	!LO:TX:b:t=Vertat	!	!	!	!LO:SIC:v:t=custos g	!
!	!	!LO:SIC:v:t=custos G	!	!	!LO:SIC:v:t=custos B	!	!LO:SIC:v:t=custos d	!	!LO:TX:b:t=Vertat	!
0BB-/;	-cob.	0BB-/;	.	-cob	0d\;<	-cob.	0f\;	-cob.	0b-\;	-cob.
!LO:LB:g=original	!	!	!	!	!LO:PB:g=original	!	!LO:PB:g=original	!	!LO:PB:g=original	!
=43||-	=43||-	=43||-	=43||-	=43||-	=43||-	=43||-	=43||-	=43||-	=43||-	=43||-
*M3/2	*	*M3/2	*	*	*M3/2	*	*M3/2	*	*M3/2	*
!LO:TX:a:t=T.	!	!LO:TX:a:t=T.	!	!	!	!	!	!	!LO:TX:a:t=T.	!
2.G\	Glo-	2.G\	.	Glo-	2.B-\	Glo-	2.d\	Glo-	2.g/	Glo-
4G\	-ri-	4G\	.	-ri-	4B-\	-ri-	4d\	-ri-	4g/	-ri-
!LO:TX:t=P:problem:kreska pseudotaktowa	!	!LO:TX:t=P:problem:kreska pseudotaktowa	!	!	!LO:TX:t=P:problem:kreska pseudotaktowa	!	!LO:TX:t=P:problem:kreska pseudotaktowa	!	!LO:TX:t=P:problem:kreska pseudotaktowa	!
2D\	-a	2D\	#	-a	2A\	-a	2d\	-a	2a/	-a
=44-	=44-	=44-	=44-	=44-	=44-	=44-	=44-	=44-	=44-	=44-
1G\	Pa-	1G\	-	Pa-	1B-\	Pa-	2d\	Pa-	1g\	Pa-
.	.	.	.	.	.	.	(2B-/	-tri	.	.
!LO:TX:t=P:problem:kreska pseudotaktowa	!	!LO:TX:t=P:problem:kreska pseudotaktowa	!	!	!LO:TX:t=P:problem:kreska pseudotaktowa	!	!LO:TX:t=P:problem:kreska pseudotaktowa	!	!LO:TX:t=P:problem:kreska pseudotaktowa	!
2A\	-tri	2A\	6\	-tri	2A/	-tri	2c/)	.	2f#X/	-tri
=45-	=45-	=45-	=45-	=45-	=45-	=45-	=45-	=45-	=45-	=45-
2G\	Pa-	2G\	-	Pa-	2B-\	Pa-	2d\	Pa-	2g\	Pa-
2GG/	-tri	2GG,/	.	-tri	2B-,\	-tri	2g\	-tri	2g\	-tri
!LO:TX:t=P:problem:kreska pseudotaktowa	!	!LO:TX:t=P:problem:kreska pseudotaktowa	!	!	!LO:TX:t=P:problem:kreska pseudotaktowa	!	!LO:TX:t=P:problem:kreska pseudotaktowa	!	!LO:TX:t=P:problem:kreska pseudotaktowa	!
2D\	et	2D\	#	et	2d\	et	2f#X\	et	2a\	et
=46-	=46-	=46-	=46-	=46-	=46-	=46-	=46-	=46-	=46-	=46-
2.GG/	Fi-	2.GG/	.	Fi-	1d\	Fi-	1g\	Fi-	1b-\	Fi-
4AA/	.	4AA/	.	.	.	.	.	.	.	.
!	!	!	!	!	!LO:TX:t=P:problem:kreska pseudotaktowa	!	!LO:TX:t=P:problem:kreska pseudotaktowa	!	!LO:TX:t=P:problem:kreska pseudotaktowa	!
(4BB-/	.	4BB-/	.	.	2d\	-li-	2g\	-li-	2b-\	-li-
!LO:TX:t=P:problem:kreska pseudotaktowa	!	!LO:TX:t=P:problem:kreska pseudotaktowa	!	!	!	!	!	!	!	!
4C/)	-li-	4C/	.	-li-	.	.	.	.	.	.
=47-	=47-	=47-	=47-	=47-	=47-	=47-	=47-	=47-	=47-	=47-
2D,\	-o	2D,\	.	-o	2d\	-o	2f#X\	-o	2a\	-o
2D\	et	2D\	.	et	2r	.	2r	.	2r	.
!LO:TX:t=P:problem:kreska pseudotaktowa	!	!LO:TX:t=P:problem:kreska pseudotaktowa	!	!	!LO:TX:t=P:problem:kreska pseudotaktowa	!	!LO:TX:t=P:problem:kreska pseudotaktowa	!	!LO:TX:t=P:problem:kreska pseudotaktowa	!
2En\	Spi-	2En\	.	Spi-	2r	.	2r	.	2r	.
=48-	=48-	=48-	=48-	=48-	=48-	=48-	=48-	=48-	=48-	=48-
1F\	-ri-	1F\	.	-ri-	2r	.	2r	.	0.r	.
.	.	.	.	.	2A\	et	2fn\	et	.	.
!	!	!LO:TX:t=P:problem:kreska pseudotaktowa	!	!	!LO:TX:t=P:problem:kreska pseudotaktowa	!	!LO:TX:t=P:problem:kreska pseudotaktowa	!	!	!
2F\	-tu-	2F\	.	-tu-	2B-\	Spi-	2f\	Spi-	.	.
=49-	=49-	=49-	=49-	=49-	=49-	=49-	=49-	=49-	=49-	=49-
2C,/	-i	2C,/	.	-i	1c\	-ri-	2.en\	-ri-	.	.
2En\	et	2En\	6	et	.	.	.	.	.	.
.	.	.	.	.	.	.	4e\	-tu-	.	.
!LO:TX:t=P:problem:kreska pseudotaktowa	!	!LO:TX:t=P:problem:kreska pseudotaktowa	!	!	!LO:TX:t=P:problem:kreska pseudotaktowa	!	!LO:TX:t=P:problem:kreska pseudotaktowa	!	!	!
2F\	Spi-	2F\	.	Spi-	2c\	-tu-	2e\	-i	.	.
!	!	!LO:LB:g=original	!	!	!	!	!	!	!	!
=50-	=50-	=50-	=50-	=50-	=50-	=50-	=50-	=50-	=50-	=50-
!	!	!	!	!	!	!	!	!	!LO:TX:t=P:problem:kreska pseudotaktowa	!
1G\	-ri-	1G\	.	-ri-	2G,/	-i	1d\	San-	1.r	.
.	.	.	.	.	2G/	et	.	.	.	.
!	!	!	!	!	!LO:TX:t=P:problem:kreska pseudotaktowa	!	!LO:TX:t=P:problem:kreska pseudotaktowa	!	!	!
!LO:TX:t=P:problem:kreska pseudotaktowa	!	!LO:TX:t=P:problem:kreska pseudotaktowa	!	!	!LO:SIC:v:t=custos B	!	!LO:SIC:v:t=custos d	!	!	!
2G\	-tu-	2G\	.	-tu-	2A/	Spi-	2d\	-cto,	.	.
!LO:LB:g=original	!	!	!	!	!LO:LB:g=original	!	!LO:LB:g=original	!	!	!
=51-	=51-	=51-	=51-	=51-	=51-	=51-	=51-	=51-	=51-	=51-
2D,\	-i	2D,\	.	-i	2B-\	.	2r	.	2r	.
2D\	/et	2D\	n	et	2F/	-ri-	2d\	et	2a\	et
!LO:TX:t=P:problem:kreska pseudotaktowa	!	!LO:TX:t=P:problem:kreska pseudotaktowa	!	!	!LO:TX:t=P:problem:kreska pseudotaktowa	!	!LO:TX:t=P:problem:kreska pseudotaktowa	!	!LO:TX:t=P:problem:kreska pseudotaktowa	!
2G\	Spi-	2G\	.	Spi-	2G/	.	2d\	Spi-	2b-\	Spi-
=52-	=52-	=52-	=52-	=52-	=52-	=52-	=52-	=52-	=52-	=52-
2.Fn\	-ri-	2.Fn\	.	-ri-	2.A\	.	2.fn\	-ri-	2.cc\	-ri-
4F\	-tu-	4F\	.	-tu-	4A\	-tu-	4f\	-tu-	4cc\	-tu-
!LO:TX:t=P:problem:kreska pseudotaktowa	!	!LO:TX:t=P:problem:kreska pseudotaktowa	!	!	!LO:TX:t=P:problem:kreska pseudotaktowa	!	!LO:TX:t=P:problem:kreska pseudotaktowa	!	!LO:TX:t=P:problem:kreska pseudotaktowa	!
2G\	-i/	2G\	.	-i	2B-\	-i	2d\	-i	2g/	-i
=53-	=53-	=53-	=53-	=53-	=53-	=53-	=53-	=53-	=53-	=53-
2E-X\	San-	2E-X\	6	San-	2c\	San-	1e-X\	San-	1cc\	San-
!	!	!	!	!	!LO:TX:t=P:problem:kreska pseudotaktowa	!	!	!	!	!
2C/	.	2C/	.	.	[1G/	.	.	.	.	.
!	!	!LO:TX:t=P:problem:kreska pseudotaktowa	!	!	!	!	!	!	!	!
!LO:TX:t=P:problem:kreska pseudotaktowa	!	!LO:TX:t=P:problem:kreska taktowa poprawiona na 2G	!	!	!	!	!LO:TX:t=P:problem:kreska pseudotaktowa	!	!	!
[<2G\	.	[2G\	.	.	.	.	2d\	.	1b-\	.
=54-	=54-	=54-	=54-	=54-	=54-	=54-	=54-	=54-	=54-	=54-
!	!	!	!	!	!	!	!LO:TX:t=P:problem:kreska pseudotaktowa	!	!	!
2G\]	.	2G\]	.	.	1G/]	.	1.d\	.	.	.
!	!	!	!	!	!	!	!	!	!LO:TX:t=P:problem:kreska pseudotaktowa	!
!	!	!LO:TX:t=P:problem:kreska pseudotaktowa	!	!	!	!	!	!	!LO:SIC:v:t=custos g	!
1D\	.	1D\	4	.	.	.	.	.	1a\	.
!	!	!	!	!	!LO:TX:t=P:problem:kreska pseudotaktowa	!	!	!	!	!
.	.	.	3	.	.	.	.	.	.	.
.	.	.	#	.	2F#X/	-cto.	.	.	.	.
!	!	!	!	!	!	!	!	!	!LO:LB:g=original	!
=55-	=55-	=55-	=55-	=55-	=55-	=55-	=55-	=55-	=55-	=55-
2GG,/	-cto	2GG,/	.	-cto.	2G,/	.	2d,\	-cto.	2g,/	-cto.
2B-\	Si-	2B-\	.	Si-	2Fn/	Si-	2d\	Si-	2dd\	Si-
!LO:TX:t=P:problem:kreska pseudotaktowa	!	!LO:TX:t=P:problem:kreska pseudotaktowa	!	!	!LO:TX:t=P:problem:kreska pseudotaktowa	!	!LO:TX:t=P:problem:kreska pseudotaktowa	!	!LO:TX:t=P:problem:kreska pseudotaktowa	!
2F\	-cut	2F\	.	-cut	2A\	-cut	2f\	-cut	2cc\	-cut
=56-	=56-	=56-	=56-	=56-	=56-	=56-	=56-	=56-	=56-	=56-
1D\	e-	1D\	6	e-	1B-\	e-	1f\	e-	1dd\	e-
!LO:TX:t=P:problem:kreska pseudotaktowa	!	!LO:TX:t=P:problem:kreska pseudotaktowa	!	!	!LO:TX:t=P:problem:kreska pseudotaktowa	!	!LO:TX:t=P:problem:kreska pseudotaktowa	!	!LO:TX:t=P:problem:kreska pseudotaktowa	!
2C/	-rat	2C/	6	-rat	2A\	-rat	2e-X\	-rat	2ee-X\	-rat
!	!	!LO:LB:g=original	!	!	!	!	!	!	!	!
=57-	=57-	=57-	=57-	=57-	=57-	=57-	=57-	=57-	=57-	=57-
2BB-/	in	2BB-/	.	in	(2B-\	in	(2f\	in	1dd\	in
2D\	.	2D\	6	.	2f\)	.	2d\)	.	.	.
!LO:SIC:v:s=2E-	!	!LO:TX:t=P:problem:kreska pseudotaktowa	!	!	!	!	!LO:TX:t=P:problem:kreska pseudotaktowa	!	!	!
2E\	prin-	2E-X\	6	prin-	(4e-X\	prin-	2g\	prin-	(4cc\	prin-
!	!	!	!	!	!LO:TX:t=P:problem:kreska pseudotaktowa	!	!	!	!	!
!	!	!	!	!	!LO:SIC:v:t=custos c	!	!	!	!LO:TX:t=P:problem:kreska pseudotaktowa	!
.	.	.	.	.	4d\)	.	.	.	4b-\)	.
!	!	!	!	!	!LO:LB:g=original	!	!	!	!	!
=58-	=58-	=58-	=58-	=58-	=58-	=58-	=58-	=58-	=58-	=58-
2.F\	-ci-	2.F\	.	-ci-	2.c\	-ci-	2.fn\	-ci-	2.a\	-ci-
4F\	-pi-	4F\	.	-pi-	4c\	-pi-	4f\	-pi-	4a\	-pi-
!LO:TX:t=P:problem:kreska pseudotaktowa	!	!LO:TX:t=P:problem:kreska pseudotaktowa	!	!	!LO:TX:t=P:problem:kreska pseudotaktowa	!	!LO:TX:t=P:problem:kreska pseudotaktowa	!	!LO:TX:t=P:problem:kreska pseudotaktowa	!
2F\	-o	2F\	.	-o	2c\	-o	2f\	-o	2a\	-o
!LO:PB:g=original	!	!	!	!	!	!	!LO:LB:g=original	!	!	!
=59-	=59-	=59-	=59-	=59-	=59-	=59-	=59-	=59-	=59-	=59-
2D\	et	2D\	6	et	2d,\	et	2f\	et	2b-\	et
2E-X\	nunc	2E-X\	5	nunc	2B-,\	nunc	2g\	nunc	2b-\	nunc
!LO:TX:t=P:problem:kreska pseudotaktowa	!	!LO:TX:t=P:problem:kreska pseudotaktowa	!	!	!LO:TX:t=P:problem:kreska pseudotaktowa	!	!LO:TX:t=P:problem:kreska pseudotaktowa	!	!LO:TX:t=P:problem:kreska pseudotaktowa	!
2BB-/	et	2BB-/	.	et	2d\	et	2f\	et	2b-\	et
=60-	=60-	=60-	=60-	=60-	=60-	=60-	=60-	=60-	=60-	=60-
!	!	!	!	!	!LO:TX:t=P:problem:kreska pseudotaktowa	!	!LO:TX:t=P:problem:kreska pseudotaktowa	!	!	!
1F\	sem-	1F\	4 3	sem-	1.c\	sem-	1.f\	sem-	1b-\	sem-
!	!	!LO:TX:t=P:problem:kreska pseudotaktowa	!	!	!	!	!	!	!LO:TX:t=P:problem:kreska pseudotaktowa	!
2FF/	.	2FF/	.	.	.	.	.	.	2a\	.
=61-	=61-	=61-	=61-	=61-	=61-	=61-	=61-	=61-	=61-	=61-
2BB-,/	-per	2BB-,/	.	-per	2d,\	-per	2f,\	-per	2b-,\	-per
2G\	et	2G\	.	et	(4B-\	et	(4g\	et	2dd\	et
.	.	.	.	.	4d\)	.	4b-\)	.	.	.
!LO:TX:t=P:problem:kreska pseudotaktowa	!	!LO:TX:t=P:problem:kreska pseudotaktowa	!	!	!	!	!	!	!LO:TX:t=P:problem:kreska pseudotaktowa	!
2C/	in	2C/	6	in	(4c\	in	(4a\	in	2ee-X\	in
!	!	!	!	!	!LO:TX:t=P:problem:kreska pseudotaktowa	!	!LO:TX:t=P:problem:kreska pseudotaktowa	!	!	!
.	.	.	5	.	4B-\)	.	4g\)	.	.	.
=62-	=62-	=62-	=62-	=62-	=62-	=62-	=62-	=62-	=62-	=62-
2.D\	sae-	2.D\	#	sae-	2.A/	sae-	2.f#X\	sae-	2.dd\	sae-
4D\	-cu-	4D\	.	-cu-	4A/	-cu-	4f#\	-cu-	4dd\	-cu-
!	!	!LO:SIC:v:t=custos GG	!	!	!	!	!	!	!	!
!LO:TX:t=P:problem:kreska pseudotaktowa	!	!LO:TX:t=P:problem:kreska pseudotaktowa	!	!	!LO:TX:t=P:problem:kreska pseudotaktowa	!	!LO:TX:t=P:problem:kreska pseudotaktowa	!	!LO:TX:t=P:problem:kreska pseudotaktowa	!
2D\	-la	2D\	.	-la	2A/	-la	2f#\	-la	2dd\	-la
!	!	!LO:LB:g=original	!	!	!	!	!	!	!LO:LB:g=original	!
=63-	=63-	=63-	=63-	=63-	=63-	=63-	=63-	=63-	=63-	=63-
2.GG/	sae-	2.GG/	.	sae-	1d\	sae-	2r	.	2r	.
.	.	.	.	.	.	.	2g\	sae-	2b-\	sae-
4AA/	-cu-	4AA/	.	.	.	.	.	.	.	.
!	!	!	!	!	!LO:TX:t=P:problem:kreska pseudotaktowa	!	!LO:TX:t=P:problem:kreska pseudotaktowa	!	!LO:TX:t=P:problem:kreska pseudotaktowa	!
4BB-/	.	4BB-/	6	.	2d\	-cu-	2g\	-cu-	2b-\	-cu-
!LO:TX:t=P:problem:kreska pseudotaktowa	!	!LO:TX:t=P:problem:kreska pseudotaktowa	!	!	!	!	!	!	!	!
4C/	.	4C/	.	-cu-	.	.	.	.	.	.
=64-	=64-	=64-	=64-	=64-	=64-	=64-	=64-	=64-	=64-	=64-
1D\	-lo-	1D\	4	-lo-	2d\	-lo-	2g\	-lo-	2b-\	-lo-
!	!	!	!	!	!LO:TX:t=P:problem:kreska pseudotaktowa	!	!LO:TX:t=P:problem:kreska pseudotaktowa	!	!LO:TX:t=P:problem:kreska pseudotaktowa	!
.	.	.	3	.	1A\	-rum	1f#X\	-rum	1a\	-rum
!LO:TX:t=P:problem:kreska pseudotaktowa	!	!LO:TX:t=P:problem:kreska pseudotaktowa	!	!	!	!	!	!	!	!
2D\	-rum	2D\	#	-rum	.	.	.	.	.	.
=65-	=65-	=65-	=65-	=65-	=65-	=65-	=65-	=65-	=65-	=65-
2.BB-/	sae-	2.BB-/	.	sae-	2r	.	2r	.	2r	.
.	.	.	.	.	2B-\	/sae-	2fn\	/sae-	2dd\	sae-
4C/	-cu-	4C/	.	.	.	.	.	.	.	.
!	!	!	!	!	!LO:TX:t=P:problem:kreska pseudotaktowa	!	!LO:TX:t=P:problem:kreska pseudotaktowa	!	!LO:TX:t=P:problem:kreska pseudotaktowa	!
4D/	.	4D\	6	.	2B-\	-cu-	2f\	-cu-	2dd\	-cu-
!LO:TX:t=P:problem:kreska pseudotaktowa	!	!LO:TX:t=P:problem:kreska pseudotaktowa	!	!	!	!	!	!	!	!
4E/	.	4E\	.	-cu-	.	.	.	.	.	.
!LO:LB:g=original	!	!	!	!	!	!	!	!	!	!
=66-	=66-	=66-	=66-	=66-	=66-	=66-	=66-	=66-	=66-	=66-
1F\	-lo-	1F\	4	-lo-	2B-\	-lo-	2f\	-lo-	2dd\	-lo-
!	!	!	!	!	!LO:TX:t=P:problem:kreska pseudotaktowa	!	!LO:TX:t=P:problem:kreska pseudotaktowa	!	!LO:TX:t=P:problem:kreska pseudotaktowa	!
.	.	.	3	.	1A\	-rum/	1f\	-rum/	1cc\,	-rum
!LO:TX:t=P:problem:kreska pseudotaktowa	!	!LO:TX:t=P:problem:kreska pseudotaktowa	!	!	!	!	!	!	!	!
2F\	-rum	2F\	.	-rum	.	.	.	.	.	.
!	!	!	!	!	!LO:LB:g=original	!	!LO:LB:g=original	!	!	!
=67-	=67-	=67-	=67-	=67-	=67-	=67-	=67-	=67-	=67-	=67-
1G\	A-	1G\	.	A-	1B-\	A-	2d\	A-	1dd\	A-
.	.	.	.	.	.	.	2g\	.	.	.
!LO:TX:t=P:problem:kreska pseudotaktowa	!	!LO:TX:t=P:problem:kreska pseudotaktowa	!	!	!LO:TX:t=P:problem:kreska pseudotaktowa	!	!LO:TX:t=P:problem:kreska pseudotaktowa	!	!LO:TX:t=P:problem:kreska pseudotaktowa	!
2F\	-men	2F\	5	-men	2c\	-men	2a\	-men	2a\	-men
=68-	=68-	=68-	=68-	=68-	=68-	=68-	=68-	=68-	=68-	=68-
2G\	A-	2G\	.	A-	2G/	A-	1g\	A-	2b-\	A-
!LO:TX:t=P:problem:kreska pseudotaktowa	!	!LO:TX:t=P:problem:kreska pseudotaktowa	!	!	!LO:TX:t=P:problem:kreska pseudotaktowa	!	!	!	!LO:TX:t=P:problem:kreska pseudotaktowa	!
1D\	.	1D\	4	.	1A\	.	.	.	1dd\	.
!	!	!	!	!	!	!	!LO:TX:t=P:problem:kreska pseudotaktowa	!	!	!
.	.	.	3	.	.	.	2f#X\	.	.	.
.	.	.	#	.	.	.	.	.	.	.
=69-	=69-	=69-	=69-	=69-	=69-	=69-	=69-	=69-	=69-	=69-
!	!	!	!	!	!	!	!	!	!LO:TX:t=P:problem:kreska pseudotaktowa	!
!LO:TX:t=P:problem:podwójna kreska taktowa	!	!LO:TX:t=P:problem:podwójna kreska taktowa	!	!	!LO:TX:t=P:problem:kreska pseudotaktowa	!	!LO:TX:t=P:problem:kreska pseudotaktowa	!	!	!
1.E-X\;<	-men	1.E-X\;<	6 4 3	-men	1.A\;	-men	1.g\;<	-men	1.cc#X\;;	-men
=70-	=70-	=70||-	=70-	=70-	=70-	=70-	=70-	=70-	=70-	=70-
!LO:TX:t=P:problem:kreska pseudotaktowa	!	!LO:TX:t=P:problem:kreska pseudotaktowa	!	!	!	!	!	!	!	!
[<1.D\	A-	[<1.D\	#	A-	1A\	/A-	1f#X\	A-	1a\	/A-
!	!	!	!	!	!LO:TX:t=P:problem:kreska pseudotaktowa	!	!LO:TX:t=P:problem:kreska pseudotaktowa	!	!LO:TX:t=P:problem:kreska pseudotaktowa	!
.	.	.	3	.	2d\	-men/	[<2g\	-men	2b-\	-men/
.	.	.	4	.	.	.	.	.	.	.
=71-	=71-	=71-	=71-	=71-	=71-	=71-	=71-	=71-	=71-	=71-
!	!	!	!	!	!LO:TX:t=P:problem:kreska pseudotaktowa	!	!	!	!LO:TX:t=P:problem:kreska pseudotaktowa	!
1.D\]	.	1.D\]	4	.	1.d\	A-	2g\]	.	1.a\	A-
.	.	.	3	.	.	.	2g\	A-	.	.
!	!	!	!	!	!	!	!LO:TX:t=P:problem:kreska pseudotaktowa	!	!	!
.	.	.	#	.	.	.	2f#X\	.	.	.
=72-	=72-	=72-	=72-	=72-	=72-	=72-	=72-	=72-	=72-	=72-
00.GG/;	-men.	00.GG/;	n	-men	00.d\	-men.	00.g\	-men.	00.bn\;	-men
=-	=-	=-	=-	=-	=-	=-	=-	=-	=-	=-
*-	*-	*-	*-	*-	*-	*-	*-	*-	*-	*-
!!!system-decoration: [(s1,s2,s3,s4)][(s5)]
!!!RDF**kern: > = above
!!!RDF**kern: < = below
!!!EED: Leszek Kubiak
!!!EST: 2021-04-09
!!!AIN: 1 alto 2 empty 1 tenor 1 vox
!!!ENC: Katarzyna Serwa
!!!END: 2021-03-16
